icons/tokens/0x028171bCA77440897B824Ca71D1c56caC55b68A3/logo.svg

<svg width="32" height="32" viewBox="0 0 32 32" fill="none" xmlns="http://www.w3.org/2000/svg">
<path fill-rule="evenodd" clip-rule="evenodd" d="M29 16C29 14.2986 28.6615 12.5971 28.0104 11.0252C27.3594 9.4532 26.3956 8.01072 25.1923 6.8077C23.9893 5.60442 22.5468 4.6406 20.9748 3.98956C19.4029 3.33852 17.7014 3 16 3C14.2986 3 12.5971 3.33852 11.0252 3.98956C9.4532 4.6406 8.01072 5.60442 6.8077 6.8077C5.60442 8.01072 4.6406 9.4532 3.98956 11.0252C3.33852 12.5971 3 14.2986 3 16C3 17.7014 3.33852 19.4029 3.98956 20.9748C4.6406 22.5468 5.60442 23.9893 6.8077 25.1923C8.01072 26.3956 9.4532 27.3594 11.0252 28.0104C12.5971 28.6615 14.2986 29 16 29C17.7014 29 19.4029 28.6615 20.9748 28.0104C22.5468 27.3594 23.9893 26.3956 25.1923 25.1923C26.3956 23.9893 27.3594 22.5468 28.0104 20.9748C28.6615 19.4029 29 17.7014 29 16Z" fill="#F4B731"/>
<path fill-rule="evenodd" clip-rule="evenodd" d="M9.80889 18.7956V23.2439L9.80655 23.2454V23.2537C11.6864 23.2279 13.5662 23.2279 15.4454 23.2537C16.0837 23.2624 16.7215 23.2218 17.3468 23.1008C18.0072 22.9728 18.6541 22.7782 19.2646 22.4979C19.5287 22.3767 19.7822 22.2304 20.0378 22.0827C20.1048 22.044 20.172 22.0052 20.2396 21.9668C20.5427 21.7531 20.8334 21.5222 21.109 21.2754C21.8648 20.5986 22.4498 19.7547 22.8154 18.8136C22.8401 18.7081 22.9444 18.6401 23.0512 18.6607H24.5868C24.709 18.6607 24.7495 18.62 24.7495 18.4833V17.5097C24.7579 17.4163 24.7579 17.3221 24.7495 17.2286C24.7495 17.2042 24.7559 17.1799 24.7622 17.1556C24.7748 17.1072 24.7873 17.059 24.7495 17.0108H23.4664C23.3115 17.0108 23.3115 16.9949 23.3115 16.8582C23.3559 16.3681 23.338 15.8774 23.3115 15.3862C23.3034 15.2416 23.3362 15.2416 23.4498 15.2416H24.5709C24.7014 15.2416 24.7443 15.2089 24.7503 15.0804C24.7706 14.64 24.7706 14.2003 24.7503 13.7608C24.7462 13.6738 24.7441 13.6296 24.721 13.6071C24.6969 13.5837 24.6503 13.5837 24.5553 13.5837H23.1009C22.9875 13.6028 22.8788 13.5271 22.858 13.4146C22.6914 12.9832 22.4829 12.5677 22.2234 12.1836C21.966 11.8026 21.6821 11.4386 21.3542 11.114C20.9265 10.691 20.4481 10.3206 19.9245 10.0197C19.1374 9.56764 18.2771 9.25049 17.3811 9.08676C16.9467 9.00722 16.5078 8.94183 16.065 8.94183H9.97165C9.80889 8.94183 9.80889 8.97427 9.80889 9.10298V13.4391C9.80889 13.592 9.77613 13.592 9.65445 13.592H7.90777C7.77777 13.592 7.77777 13.6154 7.77777 13.7042V15.1198C7.77777 15.2485 7.81807 15.2485 7.91583 15.2485H9.67915C9.80889 15.2485 9.80889 15.2722 9.80889 15.3687V16.8811C9.80889 17.0181 9.76781 17.0181 9.66277 17.0181H7.77777V18.5464C7.77777 18.6751 7.81807 18.6751 7.91583 18.6751H9.67915C9.80889 18.6751 9.80889 18.6905 9.80889 18.7956ZM21.4189 17.0093H16.4794H11.6364C11.5375 17.0093 11.4889 17.0093 11.465 16.985C11.4419 16.9615 11.4419 16.9153 11.4419 16.8245V15.3927C11.4419 15.2797 11.4744 15.2398 11.5959 15.2398H21.4272C21.5333 15.2398 21.5817 15.2797 21.5817 15.3762C21.622 15.8743 21.6095 16.374 21.5817 16.8726C21.5741 17.0093 21.5245 17.0093 21.4189 17.0093ZM21.03 13.5662C21.044 13.5297 21.044 13.49 21.03 13.454C20.9476 13.2761 20.8498 13.1065 20.7364 12.9471C20.5656 12.6748 20.3641 12.424 20.1351 12.1988C20.0269 12.0626 19.9016 11.9406 19.7612 11.8368C19.0579 11.2443 18.2217 10.8249 17.3234 10.6141C16.871 10.508 16.4069 10.4653 15.942 10.4691C14.4879 10.4815 13.0337 10.4815 11.5792 10.4691C11.4573 10.4681 11.4412 10.5173 11.4412 10.6221V13.4777C11.4412 13.5982 11.4412 13.6306 11.5956 13.6306H20.9715L20.9715 13.6306C20.9757 13.6298 21.0526 13.6145 21.0692 13.5662H21.03ZM20.6145 18.6828C20.7526 18.6676 20.8919 18.6676 21.03 18.6828V18.6836C21.0935 18.7153 21.0405 18.8296 21.0371 18.8371L21.037 18.8373C20.5375 19.8055 19.7453 20.5947 18.7701 21.0967H18.7134C18.5257 21.2074 18.3244 21.2931 18.1208 21.3701C17.5545 21.584 16.9607 21.7138 16.3567 21.7565C16.162 21.7974 15.9631 21.8113 15.7642 21.7966H11.6042C11.4419 21.7966 11.4419 21.764 11.4419 21.6355V18.8435C11.4419 18.6828 11.4828 18.6828 11.6042 18.6828H20.6145Z" fill="white"/>
<path fill-rule="evenodd" clip-rule="evenodd" d="M30.7821 9.87712C31.5834 11.8118 32 13.9059 32 16C32 18.0941 31.5834 20.1882 30.7821 22.1229C29.9808 24.0576 28.7946 25.833 27.3136 27.3136C25.833 28.7946 24.0576 29.9808 22.1229 30.7821C20.1882 31.5834 18.0941 32 16 32C13.9059 32 11.8118 31.5834 9.87712 30.7821C7.9424 29.9808 6.16704 28.7946 4.6864 27.3136C3.20544 25.833 2.0192 24.0576 1.21792 22.1229C0.41664 20.1882 0 18.0941 0 16C0 13.9059 0.41664 11.8118 1.21792 9.87712C2.0192 7.9424 3.20544 6.16704 4.6864 4.6864C6.16704 3.20544 7.9424 2.0192 9.87712 1.21792C11.8118 0.41664 13.9059 0 16 0C18.0941 0 20.1882 0.41664 22.1229 1.21792C24.0576 2.0192 25.833 3.20544 27.3136 4.6864C28.7946 6.16704 29.9808 7.9424 30.7821 9.87712ZM28.9344 10.6424C29.6354 12.3354 30 14.1676 30 16C30 17.8324 29.6354 19.6646 28.9344 21.3576C28.2332 23.0504 27.195 24.6038 25.8996 25.8996C24.6038 27.195 23.0504 28.2332 21.3576 28.9344C19.6646 29.6354 17.8324 30 16 30C14.1676 30 12.3354 29.6354 10.6424 28.9344C8.9496 28.2332 7.39622 27.195 6.10044 25.8996C4.80498 24.6038 3.7668 23.0504 3.06556 21.3576C2.36462 19.6646 2 17.8324 2 16C2 14.1676 2.36462 12.3354 3.06556 10.6424C3.7668 8.9496 4.80498 7.39622 6.10044 6.10044C7.39622 4.80498 8.9496 3.7668 10.6424 3.06556C12.3354 2.36462 14.1676 2 16 2C17.8324 2 19.6646 2.36462 21.3576 3.06556C23.0504 3.7668 24.6038 4.80498 25.8996 6.10044C27.195 7.39622 28.2332 8.9496 28.9344 10.6424Z" fill="url(#paint0_linear)"/>
<defs>
<linearGradient id="paint0_linear" x1="19.008" y1="-4.64" x2="-4.8" y2="15.392" gradientUnits="userSpaceOnUse">
<stop stop-color="#B6509E"/>
<stop offset="1" stop-color="#2EBAC6"/>
</linearGradient>
</defs>
</svg>

<svg width="32" height="32" fill="none" xmlns="http://www.w3.org/2000/svg"><path fill-rule="evenodd" clip-rule="evenodd" d="M29 16c0-1.701-.338-3.403-.99-4.975a13.037 13.037 0 00-2.818-4.217 13.037 13.037 0 00-4.217-2.818A13.044 13.044 0 0016 3c-1.701 0-3.403.339-4.975.99a13.038 13.038 0 00-4.217 2.818 13.038 13.038 0 00-2.818 4.217A13.044 13.044 0 003 16c0 1.701.339 3.403.99 4.975a13.037 13.037 0 002.818 4.217 13.037 13.037 0 004.217 2.818c1.572.651 3.274.99 4.975.99 1.701 0 3.403-.338 4.975-.99a13.036 13.036 0 004.217-2.818 13.036 13.036 0 002.818-4.217C28.661 19.403 29 17.7 29 16z" fill="#F4B731"/><path fill-rule="evenodd" clip-rule="evenodd" d="M9.809 18.796v4.448l-.002.001v.009c1.88-.026 3.76-.026 5.638 0a9.331 9.331 0 001.902-.153 8.436 8.436 0 001.918-.603c.264-.121.517-.268.773-.415l.202-.116c.303-.214.593-.445.869-.692a6.435 6.435 0 001.706-2.461.203.203 0 01.236-.153h1.536c.122 0 .163-.041.163-.178v-.973a1.571 1.571 0 000-.281c0-.025.006-.05.012-.073.013-.049.025-.097-.012-.145h-1.284c-.155 0-.155-.016-.155-.153.045-.49.027-.98 0-1.472-.008-.144.025-.144.139-.144h1.12c.131 0 .174-.033.18-.162.02-.44.02-.88 0-1.32-.004-.086-.006-.13-.029-.153-.024-.023-.07-.023-.166-.023h-1.454a.212.212 0 01-.243-.17 6.153 6.153 0 00-.635-1.23 7.03 7.03 0 00-.869-1.07 6.99 6.99 0 00-1.43-1.094 7.996 7.996 0 00-2.543-.933 7.321 7.321 0 00-1.316-.145H9.972c-.163 0-.163.032-.163.161v4.336c0 .153-.033.153-.155.153H7.908c-.13 0-.13.023-.13.112v1.416c0 .129.04.129.138.129h1.763c.13 0 .13.023.13.12v1.512c0 .137-.041.137-.146.137H7.778v1.528c0 .13.04.13.138.13h1.763c.13 0 .13.015.13.12zm11.61-1.787H11.636c-.098 0-.147 0-.171-.024-.023-.023-.023-.07-.023-.16v-1.432c0-.113.032-.153.154-.153h9.831c.106 0 .155.04.155.136.04.498.027.998 0 1.497-.008.136-.058.136-.163.136zm-.389-3.443a.155.155 0 000-.112 3.175 3.175 0 00-.294-.507 4.117 4.117 0 00-.6-.748 1.985 1.985 0 00-.375-.362 5.865 5.865 0 00-2.438-1.223 5.835 5.835 0 00-1.381-.145c-1.454.013-2.908.013-4.363 0-.122 0-.138.048-.138.153v2.856c0 .12 0 .153.155.153h9.375c.005-.001.082-.017.098-.065h-.039zm-.416 5.117c.139-.015.278-.015.416 0 .063.032.01.147.007.154a5.252 5.252 0 01-2.267 2.26h-.057c-.187.11-.389.196-.592.273a6.234 6.234 0 01-1.764.386c-.195.041-.394.055-.593.04h-4.16c-.162 0-.162-.032-.162-.16v-2.793c0-.16.04-.16.162-.16h9.01z" fill="#fff"/><path fill-rule="evenodd" clip-rule="evenodd" d="M30.782 9.877A16.054 16.054 0 0132 16c0 2.094-.417 4.188-1.218 6.123a16.046 16.046 0 01-3.468 5.19 16.046 16.046 0 01-5.191 3.47A16.054 16.054 0 0116 32c-2.094 0-4.188-.417-6.123-1.218a16.046 16.046 0 01-5.19-3.468 16.046 16.046 0 01-3.47-5.191A16.055 16.055 0 010 16c0-2.094.417-4.188 1.218-6.123a16.047 16.047 0 013.468-5.19 16.047 16.047 0 015.191-3.47A16.054 16.054 0 0116 0c2.094 0 4.188.417 6.123 1.218a16.046 16.046 0 015.19 3.468 16.046 16.046 0 013.47 5.191zm-1.848.765A14.05 14.05 0 0130 16a14.05 14.05 0 01-1.066 5.358A14.053 14.053 0 0125.9 25.9a14.053 14.053 0 01-4.542 3.034A14.05 14.05 0 0116 30a14.05 14.05 0 01-5.358-1.066A14.052 14.052 0 016.1 25.9a14.053 14.053 0 01-3.034-4.542A14.052 14.052 0 012 16c0-1.832.365-3.665 1.066-5.358A14.052 14.052 0 016.1 6.1a14.052 14.052 0 014.542-3.034A14.052 14.052 0 0116 2c1.832 0 3.665.365 5.358 1.066A14.053 14.053 0 0125.9 6.1a14.052 14.052 0 013.034 4.542z" fill="url(#paint0_linear)"/><defs><linearGradient id="paint0_linear" x1="19.008" y1="-4.64" x2="-4.8" y2="15.392" gradientUnits="userSpaceOnUse"><stop stop-color="#B6509E"/><stop offset="1" stop-color="#2EBAC6"/></linearGradient></defs></svg>
